X:1
T:Title
%%score 1 2
L:1/8
Q:1/4=80
M:3/4
K:F
V:1 treble nm="Strings 1, SOPRANO ALTO"
V:2 bass nm="Strings 1, TENOR BASS"
V:1
 z2 z2 [FA][CG] | [CF]3 [CF] [DF][DF] | [CF] [CF]3 [CE][CF] | [CG]3 [EG] [FA][FA] | %4
w: 1.~Church~ of~|God,~ thou~ spot less~|vir gin,~ Church~ of~|Christ,~ for~ whom~ He~|
 [EG]4 [FA][CG] | [CF]3 F [FG][FA] | [FB] [FB]3 [Fd][Fd] | [Fc]3 C [CD][CE] | [CF]4 [CF][_EF] | %9
w: died,~ Thou~ hast~|known~ no~ hu man~|found er,~ Je sus~|bought~ thee~ for~ His~|bride.~ Sanc ti|
 [DB]3 [DB] [DF][DG] | [CA] [CA]3 [Fc][Fc] | [EG]3 [EG] [FA][FA] | [EG]4 [FA][CG] | %13
w: fied~ by~ God~ the~|Fa ther,~ Built~ by~|Je sus~ Christ~ the~|Son,~ All~ pered~|
 [CF]3 F [FG][FA] | [FB] [FB]3 [Fd][Fd] | [Fc]3 C [CD][CE] | [CF]4 [FA][CG] | [CF]3 F [FG][FA] | %18
w: by~ the~ Ho ly~|Spir it,~ Like~ the~|Ho ly~ Three~ in~|One.~ All~ pered~|by~ the~ Ho ly~|
 [FB] [FB]3 [Fd][Fd] | [Fc]3 C [CD][CE] | [CF]4 z2 |] %21
w: Spir it,~ Like~ the~|Ho ly~ Three~ in~|One.~|
V:2
 z2 z2 [F,C][F,B,] | [F,A,]3 [F,A,] [F,B,][F,B,] | [F,A,] [F,A,]3 [C,G,][C,A,] | %3
 [C,C]3 [C,C] [C,C][C,C] | [C,C]4 [F,C][F,B,] | [F,A,]3 [_E,A,] [D,B,][C,C] | %6
 [B,,D] [B,,D]3 [B,,B,][B,,B,] | [C,A,]3 [C,A,] [C,B,][C,B,] | [F,A,]4 [F,A,][F,A,] | %9
 [B,,B,]3 [B,,B,] [B,,B,][B,,B,] | F, F,3 [F,A,][A,,C] | [C,C]3 [C,C] [C,C][C,C] | %12
 [C,C]4 [F,C][F,B,] | [F,A,]3 [_E,A,] [D,B,][C,C] | [B,,D] [B,,D]3 [B,,B,][B,,B,] | %15
 [C,A,]3 [C,A,] [C,B,][C,B,] | [F,A,]4 [F,C][F,B,] | [F,A,]3 [_E,A,] [D,B,][C,C] | %18
 [B,,D] [B,,D]3 [B,,B,][B,,B,] | [C,A,]3 [C,A,] [C,B,][C,B,] | [F,A,]4 z2 |] %21

